!!!OTL: WAS HAB ICH DENN MEINEM FEINSLIEBCHEN GETAN
!!!ARE: Europa, Mitteleuropa, Deutschland
!!!SCT: F0816
!!!YEM: Copyright 1995, estate of Helmut Schaffrath.
**kern
*ICvox
*Ivox
*M4/4
*k[f#c#g#d#]
*E:
{8e
8g#
=1
8b
8b
8b
8b
8b
8cc#
8b
8a
=2
4a
8g#
8g#
4b
8a}
{8g#
=3
4g#
8f#
8f#
4cc#
8b
8a
=4
4a
8.g#
16g#
4b
8r}
{8b
=5
4b
8.f#
16b
4b
8dd#
8dd#
=6
8dd#
8cc#
8.ff#
16ee
8.dd#
16cc#
8b}
{8b
=7
4ee
8.dd#
16cc#
8.b
16cc#
8b
8a
=8
4g#
8f#
8f#
4e}
==
!!!AGN: Geselligkeits - Lied, Liebe, Klage
!!!ONB: ESAC (Essen Associative Code) Database: FINK
!!!AMT: simple quadruple
!!!AIN: vox
!!!EED: Helmut Schaffrath
!!!EEV: 1.0
*-
